X:329
T:Reel 329
M:4/4
K:Amaj
L:1/8
ED|CA,B,A, CA,B,G,|A,2A,C E2ED|CA,B,A, CA,B,A,|G,E,F,G, A,2ED|CA,B,A, CA,B,G,|E,F,G,E B,G,E,B,|CA,B,C DB,G,A,|B,CB,C A,2|CE| (3AGF GE FDCA,|CEFG A2GF| (3FGA EC DCB,A,|G,E,F,G, A,2ED| (3CDC AG FAGA| (3FGA EC DB,CD| (3CDC  (3DCB, CA,F,G,| (3F,G,F, E,D, A,2|
